packages/foundations/assets/icons/functional/images/editing/cross_24.svg

<svg width="24" height="24" viewBox="0 0 24 24" fill="none" xmlns="http://www.w3.org/2000/svg">
<g clip-path="url(#clip0_77_982)">
<path fill-rule="evenodd" clip-rule="evenodd" d="M4.99982 17.9999C4.99982 17.7189 5.09382 17.4999 5.28082 17.3119L10.5938 11.9999L5.27982 6.68694C5.11565 6.49607 5.02707 6.25167 5.03082 5.99994C5.03082 5.43694 5.46882 5.03094 5.99982 5.03094C6.28082 5.03094 6.49982 5.12494 6.68782 5.28094L11.9998 10.5939L17.3128 5.28094C17.4015 5.18895 17.5084 5.11646 17.6267 5.06808C17.745 5.0197 17.8721 4.99649 17.9998 4.99994C18.5628 4.99994 18.9998 5.43794 18.9998 5.99994C18.9998 6.28094 18.9058 6.49994 18.6868 6.68794L13.4068 11.9999L18.6868 17.3129C18.7887 17.3953 18.8701 17.5002 18.9244 17.6195C18.9787 17.7387 19.0046 17.869 18.9998 17.9999C19.0025 18.1294 18.9794 18.2581 18.9321 18.3786C18.8847 18.4991 18.8139 18.609 18.7238 18.702C18.6337 18.795 18.5261 18.8692 18.4071 18.9203C18.2882 18.9714 18.1603 18.9985 18.0308 18.9999C17.8954 19.0042 17.7608 18.9783 17.6366 18.9241C17.5125 18.87 17.4019 18.789 17.3128 18.6869L11.9998 13.4069L6.68682 18.6869C6.59788 18.7889 6.48744 18.8698 6.36346 18.9239C6.23948 18.9781 6.10504 19.004 5.96982 18.9999C5.84027 18.9986 5.71226 18.9717 5.5932 18.9206C5.47414 18.8695 5.36639 18.7953 5.27618 18.7023C5.18598 18.6093 5.11511 18.4994 5.06767 18.3788C5.02023 18.2582 4.99717 18.1295 4.99982 17.9999Z" fill="#1A1C1F"/>
</g>
<defs>
<clipPath id="clip0_77_982">
<rect width="24" height="24" fill="white"/>
</clipPath>
</defs>
</svg>

<svg xmlns="http://www.w3.org/2000/svg" width="24" height="24" fill="none"><g clip-path="url(#a)"><path fill="#1A1C1F" fill-rule="evenodd" d="M5 18c0-.281.094-.5.28-.688L10.595 12 5.28 6.687A1.03 1.03 0 0 1 5.03 6c0-.563.439-.97.97-.97.28 0 .5.095.688.25L12 10.595l5.313-5.313A.92.92 0 0 1 18 5c.563 0 1 .438 1 1 0 .28-.094.5-.313.688L13.407 12l5.28 5.313A.84.84 0 0 1 19 18a.98.98 0 0 1-1.363.924.9.9 0 0 1-.324-.237L12 13.407l-5.313 5.28A.91.91 0 0 1 5.97 19 .98.98 0 0 1 5 18" clip-rule="evenodd"/></g><defs><clipPath id="a"><path fill="#fff" d="M0 0h24v24H0z"/></clipPath></defs></svg>
